build/flags/Kenya.svg

<svg xmlns="http://www.w3.org/2000/svg" fill="none" viewBox="0 0 28 28" focusable="false"><mask id="Kenya_svg__c" width="6.667" height="13.333" x="10.667" y="7.333" maskUnits="userSpaceOnUse"><g fill-rule="evenodd" filter="url(#Kenya_svg__a)"><path fill="#BC0000" d="M14 20.6666C15.3334 20.6666 17.3334 18.0501 17.3334 14C17.3334 9.94989 15.3334 7.33331 14 7.33331C12.6667 7.33331 10.6667 9.94989 10.6667 14C10.6667 18.0501 12.6667 20.6666 14 20.6666Z"/><path stroke="#969696" stroke-opacity="0" stroke-width="0" d="M17.3334 14C17.3334 9.94989 15.3334 7.33331 14 7.33331C12.6667 7.33331 10.6667 9.94989 10.6667 14C10.6667 18.0501 12.6667 20.6666 14 20.6666C15.3334 20.6666 17.3334 18.0501 17.3334 14Z"/></g></mask><defs><filter id="Kenya_svg__a"><feColorMatrix values="0 0 0 0 1 0 0 0 0 1 0 0 0 0 1 0 0 0 1 0"/></filter><filter id="Kenya_svg__d" width="1.333" height="15.667" x="13.333" y="6.667" color-interpolation-filters="sRGB" filterUnits="userSpaceOnUse"><feFlood flood-opacity="0" result="BackgroundImageFix"/><feOffset dy="1" in="SourceAlpha"/><feColorMatrix values="0 0 0 0 0 0 0 0 0 0 0 0 0 0 0 0 0 0 0.06 0"/><feBlend in2="BackgroundImageFix" result="effect_dropShadow_1"/><feBlend in="SourceGraphic" in2="effect_dropShadow_1" result="shape"/></filter><linearGradient id="Kenya_svg__e" x1="13.333" x2="13.333" y1="6.667" y2="21.333" gradientUnits="userSpaceOnUse"><stop offset="0" stop-color="#FFF"/><stop offset="1" stop-color="#EFEFEF"/></linearGradient></defs><mask id="Kenya_svg__b" width="28" height="20" x="0" y="4" maskUnits="userSpaceOnUse"><g filter="url(#Kenya_svg__a)"><rect width="28" height="20" y="4" fill="#FFF" rx="3"/><rect width="28" height="20" y="4" stroke="#969696" stroke-opacity="0" stroke-width="0" rx="3"/></g></mask><path fill="none" d="M0 0H28V28H0z"/><rect width="28" height="20" y="4" fill="#FFF" rx="3"/><rect width="28" height="20" y="4" rx="3"/><g mask="url(#Kenya_svg__b)"><path fill="#262626" fill-rule="evenodd" d="M0 9.33333L28 9.33333L28 4L0 4L0 9.33333Z"/><path d="M28 9.33333L28 4L0 4L0 9.33333L28 9.33333Z"/><path fill="#018301" fill-rule="evenodd" d="M0 24L28 24L28 18.6667L0 18.6667L0 24Z"/><path d="M28 24L28 18.6667L0 18.6667L0 24L28 24Z"/><path fill="#FFF" fill-rule="evenodd" d="M0 18.6666L28 18.6666L28 9.33331L0 9.33331L0 18.6666Z"/><path d="M28 18.6666L28 9.33331L0 9.33331L0 18.6666L28 18.6666Z"/><path fill="#DC0808" fill-rule="evenodd" d="M0 17.3334L28 17.3334L28 10.6667L0 10.6667L0 17.3334Z"/><path d="M28 17.3334L28 10.6667L0 10.6667L0 17.3334L28 17.3334Z"/><path fill="#BC0000" fill-rule="evenodd" d="M14 20.6666C15.3334 20.6666 17.3334 18.0501 17.3334 14C17.3334 9.94989 15.3334 7.33331 14 7.33331C12.6667 7.33331 10.6667 9.94989 10.6667 14C10.6667 18.0501 12.6667 20.6666 14 20.6666Z"/><path d="M17.3334 14C17.3334 9.94989 15.3334 7.33331 14 7.33331C12.6667 7.33331 10.6667 9.94989 10.6667 14C10.6667 18.0501 12.6667 20.6666 14 20.6666C15.3334 20.6666 17.3334 18.0501 17.3334 14Z"/><g mask="url(#Kenya_svg__c)"><path fill="#262626" fill-rule="evenodd" d="M8.66671 21.3334C10.5077 21.3334 12 18.0501 12 14C12 9.94993 10.5077 6.66669 8.66671 6.66669C6.82576 6.66669 5.33337 9.94993 5.33337 14C5.33337 18.0501 6.82576 21.3334 8.66671 21.3334Z"/><path d="M12 14C12 9.94993 10.5077 6.66669 8.66671 6.66669C6.82576 6.66669 5.33337 9.94993 5.33337 14C5.33337 18.0501 6.82576 21.3334 8.66671 21.3334C10.5077 21.3334 12 18.0501 12 14Z"/><path fill="#262626" fill-rule="evenodd" d="M19.3333 21.3334C21.1743 21.3334 22.6667 18.0501 22.6667 14C22.6667 9.94993 21.1743 6.66669 19.3333 6.66669C17.4924 6.66669 16 9.94993 16 14C16 18.0501 17.4924 21.3334 19.3333 21.3334Z"/><path d="M22.6667 14C22.6667 9.94993 21.1743 6.66669 19.3333 6.66669C17.4924 6.66669 16 9.94993 16 14C16 18.0501 17.4924 21.3334 19.3333 21.3334C21.1743 21.3334 22.6667 18.0501 22.6667 14Z"/><g filter="url(#Kenya_svg__d)"><path fill="url(#Kenya_svg__e)" fill-rule="evenodd" d="M14 12C14.3682 12 14.6667 10.8061 14.6667 9.33335C14.6667 7.86059 14.3682 6.66669 14 6.66669C13.6319 6.66669 13.3334 7.86059 13.3334 9.33335C13.3334 10.8061 13.6319 12 14 12ZM14 16C14.3682 16 14.6667 15.1046 14.6667 14C14.6667 12.8955 14.3682 12 14 12C13.6319 12 13.3334 12.8955 13.3334 14C13.3334 15.1046 13.6319 16 14 16ZM14 16C13.6319 16 13.3334 17.1939 13.3334 18.6667C13.3334 20.1394 13.6319 21.3334 14 21.3334C14.3682 21.3334 14.6667 20.1394 14.6667 18.6667C14.6667 17.1939 14.3682 16 14 16Z"/><path d="M14 12C14.3682 12 14.6667 10.8061 14.6667 9.33335C14.6667 7.86059 14.3682 6.66669 14 6.66669C13.6319 6.66669 13.3334 7.86059 13.3334 9.33335C13.3334 10.8061 13.6319 12 14 12ZM14 16C14.3682 16 14.6667 15.1046 14.6667 14C14.6667 12.8955 14.3682 12 14 12C13.6319 12 13.3334 12.8955 13.3334 14C13.3334 15.1046 13.6319 16 14 16ZM14 16C13.6319 16 13.3334 17.1939 13.3334 18.6667C13.3334 20.1394 13.6319 21.3334 14 21.3334C14.3682 21.3334 14.6667 20.1394 14.6667 18.6667C14.6667 17.1939 14.3682 16 14 16Z"/></g></g></g></svg>

<svg xmlns="http://www.w3.org/2000/svg" fill="none" viewBox="0 0 28 28" focusable="false"><defs><linearGradient id="Kenya_svg__d" x1="13.333" x2="13.333" y1="6.667" y2="21.333" gradientUnits="userSpaceOnUse"><stop stop-color="#FFF"/><stop offset="1" stop-color="#F0F0F0"/></linearGradient><filter id="Kenya_svg__c" width="1.333" height="15.667" x="13.333" y="6.667" color-interpolation-filters="sRGB" filterUnits="userSpaceOnUse"><feFlood flood-opacity="0" result="BackgroundImageFix"/><feColorMatrix in="SourceAlpha" result="hardAlpha" values="0 0 0 0 0 0 0 0 0 0 0 0 0 0 0 0 0 0 127 0"/><feOffset dy="1"/><feGaussianBlur/><feComposite in2="hardAlpha" k2="-1" k3="1" operator="out"/><feColorMatrix values="0 0 0 0 0 0 0 0 0 0 0 0 0 0 0 0 0 0 0.059 0"/><feBlend in2="BackgroundImageFix" result="effect_dropShadow_1"/><feBlend in="SourceGraphic" in2="effect_dropShadow_1" result="shape"/></filter></defs><path fill="none" d="M0 0h28v28H0z"/><rect width="28" height="20" y="4" fill="#FFF" rx="3"/><rect width="28" height="20" y="4" rx="3"/><mask id="Kenya_svg__a" width="28" height="20" x="0" y="4" mask-type="alpha" maskUnits="userSpaceOnUse"><rect width="28" height="20" y="4" fill="#FFF" rx="3"/><rect width="28" height="20" y="4" stroke="#979797" stroke-opacity="0" stroke-width="0" rx="3"/></mask><g mask="url(#Kenya_svg__a)"><path fill="#262626" fill-rule="evenodd" d="M0 9.33h28V4H0z"/><path d="M28 9.33V4H0v5.33z"/></g><g mask="url(#Kenya_svg__a)"><path fill="#018301" fill-rule="evenodd" d="M0 24h28v-5.34H0z"/><path d="M28 24v-5.34H0V24z"/></g><g mask="url(#Kenya_svg__a)"><path fill="#FFF" fill-rule="evenodd" d="M0 18.66h28V9.33H0z"/><path d="M28 18.66V9.33H0v9.33z"/></g><g mask="url(#Kenya_svg__a)"><path fill="#DC0808" fill-rule="evenodd" d="M0 17.33h28v-6.67H0z"/><path d="M28 17.33v-6.67H0v6.67z"/></g><g mask="url(#Kenya_svg__a)"><path fill="#BC0000" fill-rule="evenodd" d="M14 20.66c1.33 0 3.33-2.61 3.33-6.66 0-4.06-2-6.67-3.33-6.67-1.34 0-3.34 2.61-3.34 6.67 0 4.05 2 6.66 3.34 6.66"/><path d="M17.33 14c0-4.06-2-6.67-3.33-6.67-1.34 0-3.34 2.61-3.34 6.67 0 4.05 2 6.66 3.34 6.66 1.33 0 3.33-2.61 3.33-6.66"/><mask id="Kenya_svg__b" width="6.667" height="13.333" x="10.667" y="7.333" mask-type="alpha" maskUnits="userSpaceOnUse"><path fill="#BC0000" fill-rule="evenodd" d="M14 20.66c1.33 0 3.33-2.61 3.33-6.66 0-4.06-2-6.67-3.33-6.67-1.34 0-3.34 2.61-3.34 6.67 0 4.05 2 6.66 3.34 6.66"/><path stroke="#979797" stroke-opacity="0" stroke-width="0" d="M17.33 14c0-4.06-2-6.67-3.33-6.67-1.34 0-3.34 2.61-3.34 6.67 0 4.05 2 6.66 3.34 6.66 1.33 0 3.33-2.61 3.33-6.66Z"/></mask><g mask="url(#Kenya_svg__b)"><path fill="#262626" fill-rule="evenodd" d="M8.66 21.33C10.5 21.33 12 18.05 12 14c0-4.06-1.5-7.34-3.34-7.34S5.33 9.94 5.33 14c0 4.05 1.49 7.33 3.33 7.33"/><path d="M12 14c0-4.06-1.5-7.34-3.34-7.34S5.33 9.94 5.33 14c0 4.05 1.49 7.33 3.33 7.33S12 18.05 12 14"/></g><g mask="url(#Kenya_svg__b)"><path fill="#262626" fill-rule="evenodd" d="M19.33 21.33c1.84 0 3.33-3.28 3.33-7.33 0-4.06-1.49-7.34-3.33-7.34S16 9.94 16 14c0 4.05 1.49 7.33 3.33 7.33"/><path d="M22.66 14c0-4.06-1.49-7.34-3.33-7.34S16 9.94 16 14c0 4.05 1.49 7.33 3.33 7.33s3.33-3.28 3.33-7.33"/></g><g filter="url(#Kenya_svg__c)" mask="url(#Kenya_svg__b)"><mask id="Kenya_svg__e" fill="#fff"><path fill-rule="evenodd" d="M14 12c.368 0 .667-1.194.667-2.667S14.368 6.667 14 6.667s-.667 1.194-.667 2.666c0 1.473.299 2.667.667 2.667m0 4c.368 0 .667-.895.667-2s-.299-2-.667-2-.667.895-.667 2 .299 2 .667 2m0 0c-.368 0-.667 1.194-.667 2.667s.299 2.666.667 2.666.667-1.194.667-2.666c0-1.473-.299-2.667-.667-2.667" clip-rule="evenodd"/></mask><path fill="url(#Kenya_svg__d)" fill-rule="evenodd" d="M14 12c.368 0 .667-1.194.667-2.667S14.368 6.667 14 6.667s-.667 1.194-.667 2.666c0 1.473.299 2.667.667 2.667m0 4c.368 0 .667-.895.667-2s-.299-2-.667-2-.667.895-.667 2 .299 2 .667 2m0 0c-.368 0-.667 1.194-.667 2.667s.299 2.666.667 2.666.667-1.194.667-2.666c0-1.473-.299-2.667-.667-2.667" clip-rule="evenodd" mask="url(#Kenya_svg__e)"/></g></g></svg>
